projects/flag-game/flags/Antigua and Barbuda.svg

<svg viewBox="0 0 1000 667" xmlns="http://www.w3.org/2000/svg" xmlns:xlink="http://www.w3.org/1999/xlink"><clipPath id="a"><path d="m0 0h1000v666.71875h-1000zm0 0"/></clipPath><clipPath id="b"><path d="m0 0h1000v666.71875h-1000zm0 0"/></clipPath><g clip-path="url(#a)"><path d="m0 666.667969v-666.667969h1000v666.667969zm0 0" fill="#fff" fill-rule="evenodd"/></g><g fill-rule="evenodd"><path d="m0 0h1000v260.871094h-1000zm0 0"/><path d="m282.609375 260.871094 213.214844 42.40625 10.601562-53.300782zm0 0" fill="#fcd116"/><path d="m282.609375 260.871094 213.214844-42.410156 10.601562 53.300781zm0 0" fill="#fcd116"/><path d="m299.152344 177.675781 180.757812 120.777344 30.195313-45.191406zm0 0" fill="#fcd116"/><path d="m299.152344 177.675781 213.21875 42.410157-10.601563 53.308593zm0 0" fill="#fcd116"/><path d="m346.28125 107.152344 120.777344 180.75 45.183594-30.1875zm0 0" fill="#fcd116"/><path d="m346.28125 107.152344 180.75 120.773437-30.1875 45.1875zm0 0" fill="#fcd116"/><path d="m416.808594 60.023438 42.410156 213.214843 53.304688-10.597656zm0 0" fill="#fcd116"/><path d="m416.808594 60.023438 120.773437 180.753906-45.1875 30.199218zm0 0" fill="#fcd116"/><path d="m500 43.476562-42.410156 213.21875 53.300781 10.601563zm0 0" fill="#fcd116"/><path d="m500 43.476562 42.410156 213.21875-53.300781 10.601563zm0 0" fill="#fcd116"/><path d="m583.191406 60.023438-120.773437 180.753906 45.1875 30.199218zm0 0" fill="#fcd116"/><path d="m583.191406 60.023438-42.410156 213.214843-53.304688-10.597656zm0 0" fill="#fcd116"/><path d="m653.71875 107.152344-180.75 120.773437 30.1875 45.1875zm0 0" fill="#fcd116"/><path d="m653.71875 107.152344-120.777344 180.75-45.183594-30.1875zm0 0" fill="#fcd116"/><path d="m700.847656 177.675781-213.21875 42.410157 10.601563 53.308593zm0 0" fill="#fcd116"/><path d="m700.847656 177.675781-180.757812 120.777344-30.195313-45.191406zm0 0" fill="#fcd116"/><path d="m717.390625 260.871094-213.214844-42.410156-10.601562 53.300781zm0 0" fill="#fcd116"/><path d="m717.390625 260.871094-213.214844 42.40625-10.601562-53.300782zm0 0" fill="#fcd116"/><path d="m0 260.871094h1000v144.925781h-1000zm0 0" fill="#0072c6"/></g><g clip-path="url(#b)"><path d="m0 0v666.667969h1000v-666.667969l-500 666.667969zm0 0" fill="#ce1126" fill-rule="evenodd"/></g></svg>

<?xml version="1.0" encoding="UTF-8"?>
<svg xmlns="http://www.w3.org/2000/svg" xmlns:xlink="http://www.w3.org/1999/xlink" viewBox="0 0 1000 667" version="1.1">
<defs>
<clipPath id="clip1">
  <path d="M 0 0 L 1000 0 L 1000 666.71875 L 0 666.71875 Z M 0 0 "/>
</clipPath>
<clipPath id="clip2">
  <path d="M 0 0 L 1000 0 L 1000 666.71875 L 0 666.71875 Z M 0 0 "/>
</clipPath>
</defs>
<g id="surface109">
<g clip-path="url(#clip1)" clip-rule="nonzero">
<path style=" stroke:none;fill-rule:evenodd;fill:rgb(99.998474%,99.998474%,99.998474%);fill-opacity:1;" d="M 0 666.667969 L 0 0 L 1000 0 L 1000 666.667969 Z M 0 666.667969 "/>
</g>
<path style=" stroke:none;fill-rule:evenodd;fill:rgb(0%,0%,0%);fill-opacity:1;" d="M 0 0 L 1000 0 L 1000 260.871094 L 0 260.871094 Z M 0 0 "/>
<path style=" stroke:none;fill-rule:evenodd;fill:rgb(98.822021%,81.959534%,8.627319%);fill-opacity:1;" d="M 282.609375 260.871094 L 495.824219 303.277344 L 506.425781 249.976562 Z M 282.609375 260.871094 "/>
<path style=" stroke:none;fill-rule:evenodd;fill:rgb(98.822021%,81.959534%,8.627319%);fill-opacity:1;" d="M 282.609375 260.871094 L 495.824219 218.460938 L 506.425781 271.761719 Z M 282.609375 260.871094 "/>
<path style=" stroke:none;fill-rule:evenodd;fill:rgb(98.822021%,81.959534%,8.627319%);fill-opacity:1;" d="M 299.152344 177.675781 L 479.910156 298.453125 L 510.105469 253.261719 Z M 299.152344 177.675781 "/>
<path style=" stroke:none;fill-rule:evenodd;fill:rgb(98.822021%,81.959534%,8.627319%);fill-opacity:1;" d="M 299.152344 177.675781 L 512.371094 220.085938 L 501.769531 273.394531 Z M 299.152344 177.675781 "/>
<path style=" stroke:none;fill-rule:evenodd;fill:rgb(98.822021%,81.959534%,8.627319%);fill-opacity:1;" d="M 346.28125 107.152344 L 467.058594 287.902344 L 512.242188 257.714844 Z M 346.28125 107.152344 "/>
<path style=" stroke:none;fill-rule:evenodd;fill:rgb(98.822021%,81.959534%,8.627319%);fill-opacity:1;" d="M 346.28125 107.152344 L 527.03125 227.925781 L 496.84375 273.113281 Z M 346.28125 107.152344 "/>
<path style=" stroke:none;fill-rule:evenodd;fill:rgb(98.822021%,81.959534%,8.627319%);fill-opacity:1;" d="M 416.808594 60.023438 L 459.21875 273.238281 L 512.523438 262.640625 Z M 416.808594 60.023438 "/>
<path style=" stroke:none;fill-rule:evenodd;fill:rgb(98.822021%,81.959534%,8.627319%);fill-opacity:1;" d="M 416.808594 60.023438 L 537.582031 240.777344 L 492.394531 270.976562 Z M 416.808594 60.023438 "/>
<path style=" stroke:none;fill-rule:evenodd;fill:rgb(98.822021%,81.959534%,8.627319%);fill-opacity:1;" d="M 500 43.476562 L 457.589844 256.695312 L 510.890625 267.296875 Z M 500 43.476562 "/>
<path style=" stroke:none;fill-rule:evenodd;fill:rgb(98.822021%,81.959534%,8.627319%);fill-opacity:1;" d="M 500 43.476562 L 542.410156 256.695312 L 489.109375 267.296875 Z M 500 43.476562 "/>
<path style=" stroke:none;fill-rule:evenodd;fill:rgb(98.822021%,81.959534%,8.627319%);fill-opacity:1;" d="M 583.191406 60.023438 L 462.417969 240.777344 L 507.605469 270.976562 Z M 583.191406 60.023438 "/>
<path style=" stroke:none;fill-rule:evenodd;fill:rgb(98.822021%,81.959534%,8.627319%);fill-opacity:1;" d="M 583.191406 60.023438 L 540.78125 273.238281 L 487.476562 262.640625 Z M 583.191406 60.023438 "/>
<path style=" stroke:none;fill-rule:evenodd;fill:rgb(98.822021%,81.959534%,8.627319%);fill-opacity:1;" d="M 653.71875 107.152344 L 472.96875 227.925781 L 503.15625 273.113281 Z M 653.71875 107.152344 "/>
<path style=" stroke:none;fill-rule:evenodd;fill:rgb(98.822021%,81.959534%,8.627319%);fill-opacity:1;" d="M 653.71875 107.152344 L 532.941406 287.902344 L 487.757812 257.714844 Z M 653.71875 107.152344 "/>
<path style=" stroke:none;fill-rule:evenodd;fill:rgb(98.822021%,81.959534%,8.627319%);fill-opacity:1;" d="M 700.847656 177.675781 L 487.628906 220.085938 L 498.230469 273.394531 Z M 700.847656 177.675781 "/>
<path style=" stroke:none;fill-rule:evenodd;fill:rgb(98.822021%,81.959534%,8.627319%);fill-opacity:1;" d="M 700.847656 177.675781 L 520.089844 298.453125 L 489.894531 253.261719 Z M 700.847656 177.675781 "/>
<path style=" stroke:none;fill-rule:evenodd;fill:rgb(98.822021%,81.959534%,8.627319%);fill-opacity:1;" d="M 717.390625 260.871094 L 504.175781 218.460938 L 493.574219 271.761719 Z M 717.390625 260.871094 "/>
<path style=" stroke:none;fill-rule:evenodd;fill:rgb(98.822021%,81.959534%,8.627319%);fill-opacity:1;" d="M 717.390625 260.871094 L 504.175781 303.277344 L 493.574219 249.976562 Z M 717.390625 260.871094 "/>
<path style=" stroke:none;fill-rule:evenodd;fill:rgb(0%,44.7052%,77.645874%);fill-opacity:1;" d="M 0 260.871094 L 1000 260.871094 L 1000 405.796875 L 0 405.796875 Z M 0 260.871094 "/>
<g clip-path="url(#clip2)" clip-rule="nonzero">
<path style=" stroke:none;fill-rule:evenodd;fill:rgb(80.783081%,6.666565%,14.901733%);fill-opacity:1;" d="M 0 0 L 0 666.667969 L 1000 666.667969 L 1000 0 L 500 666.667969 Z M 0 0 "/>
</g>
</g>
</svg>
